svg/transport/bike_fill.svg

<?xml version="1.0" encoding="UTF-8"?>
<svg width="24px" height="24px" viewBox="0 0 24 24" version="1.1" xmlns="http://www.w3.org/2000/svg" xmlns:xlink="http://www.w3.org/1999/xlink">
    <title>bike_fill</title>
    <g id="页面-1" stroke="none" stroke-width="1" fill="none" fill-rule="evenodd">
        <g id="Transport" transform="translate(-96.000000, -48.000000)" fill-rule="nonzero">
            <g id="bike_fill" transform="translate(96.000000, 48.000000)">
                 <path d="M24,0 L24,24 L0,24 L0,0 L24,0 Z M12.5934901,23.257841 L12.5819402,23.2595131 L12.5108777,23.2950439 L12.4918791,23.2987469 L12.4918791,23.2987469 L12.4767152,23.2950439 L12.4056548,23.2595131 C12.3958229,23.2563662 12.3870493,23.2590235 12.3821421,23.2649074 L12.3780323,23.275831 L12.360941,23.7031097 L12.3658947,23.7234994 L12.3769048,23.7357139 L12.4804777,23.8096931 L12.4953491,23.8136134 L12.4953491,23.8136134 L12.5071152,23.8096931 L12.6106902,23.7357139 L12.6232938,23.7196733 L12.6232938,23.7196733 L12.6266527,23.7031097 L12.609561,23.275831 C12.6075724,23.2657013 12.6010112,23.2592993 12.5934901,23.257841 L12.5934901,23.257841 Z M12.8583906,23.1452862 L12.8445485,23.1473072 L12.6598443,23.2396597 L12.6498822,23.2499052 L12.6498822,23.2499052 L12.6471943,23.2611114 L12.6650943,23.6906389 L12.6699349,23.7034178 L12.6699349,23.7034178 L12.678386,23.7104931 L12.8793402,23.8032389 C12.8914285,23.8068999 12.9022333,23.8029875 12.9078286,23.7952264 L12.9118235,23.7811639 L12.8776777,23.1665331 C12.8752882,23.1545897 12.8674102,23.1470016 12.8583906,23.1452862 L12.8583906,23.1452862 Z M12.1430473,23.1473072 C12.1332178,23.1423925 12.1221763,23.1452606 12.1156365,23.1525954 L12.1099173,23.1665331 L12.0757714,23.7811639 C12.0751323,23.7926639 12.0828099,23.8018602 12.0926481,23.8045676 L12.108256,23.8032389 L12.3092106,23.7104931 L12.3186497,23.7024347 L12.3186497,23.7024347 L12.3225043,23.6906389 L12.340401,23.2611114 L12.337245,23.2485176 L12.337245,23.2485176 L12.3277531,23.2396597 L12.1430473,23.1473072 Z" id="MingCute" fill-rule="nonzero"></path>
                <path d="M10,5 C10,4.44772 10.4477,4 11,4 L13.614,4 C14.8645,4 15.9839,4.77572 16.423,5.94663 L18.717,12.0641 C20.584,12.402 22,14.0356 22,16 C22,18.2091 20.2091,20 18,20 C15.7909,20 14,18.2091 14,16 C14,14.2664 15.1028,12.7904 16.6452,12.2353 L16.1819,10.9998 L9.21074,13.614 C9.70657,14.2801 10,15.1058 10,16 C10,18.2091 8.20914,20 6,20 C3.79086,20 2,18.2091 2,16 C2,13.7909 3.79086,12 6,12 L6.02274,12.0001 L4.9116,10 L4,10 C3.44772,10 3,9.55228 3,9 C3,8.44772 3.44772,8 4,8 L5.48002,8 C5.49275,7.99976 5.50547,7.99976 5.51817,8 L8,8 C8.55228,8 9,8.44772 9,9 C9,9.55228 8.55228,10 8,10 L7.19951,10 L8.2258,11.8473 L15.4797,9.12712 L14.5503,6.64888 C14.404,6.25857 14.0308,6 13.614,6 L11,6 C10.4477,6 10,5.55228 10,5 Z" id="路径" fill="#09244B"></path>
            </g>
        </g>
    </g>
</svg>

<svg xmlns="http://www.w3.org/2000/svg" width="24" height="24"><g fill="none" fill-rule="nonzero"><path d="M24 0v24H0V0h24ZM12.593 23.258l-.011.002-.071.035-.02.004-.014-.004-.071-.035c-.01-.004-.019-.001-.024.005l-.004.01-.017.428.005.02.01.013.104.074.015.004.012-.004.104-.074.012-.016.004-.017-.017-.427c-.002-.01-.009-.017-.017-.018Zm.265-.113-.013.002-.185.093-.01.01-.003.011.018.43.005.012.008.007.201.093c.012.004.023 0 .029-.008l.004-.014-.034-.614c-.003-.012-.01-.02-.02-.022Zm-.715.002a.023.023 0 0 0-.027.006l-.006.014-.034.614c0 .012.007.02.017.024l.015-.002.201-.093.01-.008.004-.011.017-.43-.003-.012-.01-.01-.184-.092Z"/><path fill="#09244B" d="M10 5a1 1 0 0 1 1-1h2.614a3 3 0 0 1 2.809 1.947l2.294 6.117a4.001 4.001 0 1 1-2.072.171L16.182 11 9.21 13.614A4 4 0 1 1 6 12h.022l-1.111-2H4a1 1 0 0 1 0-2h4a1 1 0 0 1 0 2h-.8l1.026 1.847 7.254-2.72-.93-2.478A1 1 0 0 0 13.614 6H11a1 1 0 0 1-1-1Z"/></g></svg>
